!!!SOCIAL_FUNCTION:	war songs
!!!PDT:	1922
!!!OTL: No_79_Scalp_Dance_Song_(b).krn
!!!REG: Southwest
!!!LANG: Non-Tone
!!!LING_GROUP: Uto-Aztecan
**kern	**kern
*staff2	*staff1
=1-	=1-
*clefF4	*clefF4
*k[b-e-a-d-]	*k[b-e-a-d-]
*M2/4	*M2/4
4GG/	8.f\L
.	16f\Jk
4GG/	12f\L
.	12B-\
.	12B-\J
=2	=2
4GG/	8.f\L
.	16f\Jk
4GG/	12f\L
.	12B-\
.	12B-\J
=3	=3
4GG/	12B-\L
.	12A-\
.	12A-\J
4GG/	4A-;\
=4	=4
2r	8.f\L
.	16f\Jk
.	12f\L
.	12B-\
.	12B-\J
=5	=5
2r	8.f\L
.	16f\Jk
.	12f\L
.	12B-\
.	12f\J
=6	=6
2r	12B-\L
.	12A-\
.	12A-\J
.	4A-;\
=7	=7
2r	12F\L
.	12F\
.	12F\J
.	16F\LK
.	8.F\J
=8	=8
2r	4F\
.	4F\
=9	=9
2r	8.f\L
.	16f\Jk
.	12f\L
.	12B-\
.	12f\J
=10	=10
2r	16B-\LL
.	16A-\J
.	8A-\J
.	16F\LL
.	16A-\J
.	8F\J
=11||	=11||
*M3/4	*M3/4
2.r	16B-\LL
.	16A-\
.	16F\
.	16F\JJ
.	16B-\LL
.	16A-\J
.	8A-\J
.	16F\LK
.	8.A-\J
=12||	=12||
*M2/4	*M2/4
2r	16F\LL
.	16F\J
.	[8F\J
.	8F\L]
.	8F\J
=13	=13
2r	2F\
==	==
*-	*-
